apps/mobile/assets/icons/phosphor/arrow-square-right.svg

<svg
  height="32"
  viewBox="0 0 256 256"
  width="32"
  xmlns="http://www.w3.org/2000/svg"
>
  <path
    d="m208 32h-160a16 16 0 0 0 -16 16v160a16 16 0 0 0 16 16h160a16 16 0 0 0 16-16v-160a16 16 0 0 0 -16-16zm0 176h-160v-160h160zm-128-80a8 8 0 0 1 8-8h60.69l-18.35-18.34a8 8 0 0 1 11.32-11.32l32 32a8 8 0 0 1 0 11.32l-32 32a8 8 0 0 1 -11.32-11.32l18.35-18.34h-60.69a8 8 0 0 1 -8-8z"
  />
</svg>

<svg xmlns="http://www.w3.org/2000/svg" width="32" height="32" fill="#000000" viewBox="0 0 256 256"><path d="M208,32H48A16,16,0,0,0,32,48V208a16,16,0,0,0,16,16H208a16,16,0,0,0,16-16V48A16,16,0,0,0,208,32Zm0,176H48V48H208ZM80,128a8,8,0,0,1,8-8h60.69l-18.35-18.34a8,8,0,0,1,11.32-11.32l32,32a8,8,0,0,1,0,11.32l-32,32a8,8,0,0,1-11.32-11.32L148.69,136H88A8,8,0,0,1,80,128Z"></path></svg>
